; #TITLE The Executioner
; #COMPOSER zts

A t60 l16 o4 @01 v15 f c e f g c f g a- c g c f c e c d- c d- e f g a- b- > c < g a- b- a- g f e

C t60 l16 o3 f c e f g c f g a- c g c f c e c d- c d- e f g a- b- > c < g a- b- a- g f e
